X:1
T:Camacha, 10.10.12.10
T:Camacha, 10.10.12.10
T:Benjamin Mansell Ramsey, 1919
T:Public Domain Courtesy of the Cyber Hymnal™
C:Benjamin Mansell Ramsey, 1919
Z:Public Domain
Z:Courtesy of the Cyber Hymnal™
%%score ( 1 2 ) ( 3 4 )
L:1/8
Q:1/4=112
M:3/4
K:Eb
V:1 treble 
V:2 treble 
V:3 bass 
V:4 bass 
V:1
 [EG]2 [EG]2 [EG]2 | [EG]3 [DF] [DF]2 | [DF]2 [EG]2 [FA]2 | [EG]6 | [EB]2 [EB]2 [EB]2 | %5
 [EB]3 [E=A] [EA]2 | [E=A]2 [EB]2 [Ec]2 | B4 [FA]2 | [EG]2 [EA]2 [EB]2 | [Ec]3 [CF] [CF]2 | %10
 [DF]2 [DG]2 [DA]2 | [DB]3 [CE] [CE]2 | [CE]2 [CF]2 [CG]2 | [CA]3 [A,C] [A,C]2 | %14
 [B,D]2 [CE]2 [DF]2 | [B,E]6 |] %16
V:2
 x6 | x6 | x6 | x6 | x6 | x6 | x6 | D2 E2 x2 | x6 | x6 | x6 | x6 | x6 | x6 | x6 | x6 |] %16
V:3
 [E,B,]2 [E,B,]2 [E,B,]2 | [B,,B,]3 [B,,B,] [B,,B,]2 | [B,,B,]2 [B,,B,]2 [B,,B,]2 | [E,B,]6 | %4
 [G,B,]2 [G,B,]2 [G,B,]2 | [F,C]3 [F,C] [F,C]2 | [F,C]2 [F,G,]2 [F,=A,]2 | B,6 | %8
 [E,B,]2 [C,A,]2 [B,,G,]2 | [A,,A,]3 [A,,A,] [A,,A,]2 | [B,,A,]2 [B,,G,]2 [B,,F,]2 | %11
 [G,,G,]3 [C,G,] [C,G,]2 | [B,,G,]2 [A,,F,]2 [G,,=E,]2 | [F,,F,]3 [F,,F,] [F,,F,]2 | %14
 [B,,F,]2 [B,,G,]2 [B,,A,]2 | [E,G,]6 |] %16
V:4
 x6 | x6 | x6 | x6 | x6 | x6 | x6 | (B,,2 C,2 D,2) | x6 | x6 | x6 | x6 | x6 | x6 | x6 | x6 |] %16

